!!!ONB: MCCC : IWM0413_02 : Extracted Monophonic Melody
!!!COM: Mozart, Wolfgang Amadeus
!!!OPR: Piano Sonata No.13
!!!OMV: 2
!!!SCT: K.333 ; K⁶.315c
!!!ODT: 1783///
**kern
*thru
*staff1
*>A
*clefG2
*k[b-e-a-]
*E-:
*M3/4
*MM60
=1
4b-
8a-
8g
8cc
8b-
=2
4b-
4a-
4g
=3
4e
8f
8cc
16b-
16a-
16g
16f
=4
4e-
16d
32r
32B-
32d
32c
32e-
32d
32f
32e-
32g
32f
32a-
32g
32b-
32a-
=5
16cc
8b-
32cc
32b-
16a-
16g
16f
16e-
16gg
16dd
16ee-
16cc
=6
4b-
8.a-
32g
32a-
16g
16ee-
16dd
16dd-
=7
16b
32dd
32cc
32b-
32a-
32g
32f
4.e-
16g
16f
=8
4e-
8r
8b-
8b-
8b-
=9
8ee-
4dd
16bb-
16aa-
16gg
16ff
16ee-
16dd
=10
16ff
8ee-
32dd
32cc
8b-
8b-
8b-
8b-
=11
8ee-
4dd
16bb-
16aa-
16gg
16ff
16ee-
16dd
=12
8ee-
32ee-
32ff
32gg
32ee-
8b-
8b-
8a-
8g
=13
8.b-
16g
4f
4r
=14
4.ff
32ee-
32dd
32cc
32b-
8a
8b-
=15
8cc
32ee-
32dd
32cc
32dd
8ee-
8f
8f
8f
=16
4.ee-
32ff
32ee-
32dd
32cc
8b-
8cc
=17
8dd
32ff
32ee-
32dd
32ee-
8ff
8r
4r
=18
4.aa-
32gg
32ff
32ee-
32dd
8ee-
8ff
=19
4.ff#
16aa-
16gg
16ff
16ee-
16dd
16cc
=20
24ff
24ee
24ff
24gg
24g
24ee-
4b-
16dd
16cc
16b-
16cc
=21
4b-
8r
8ff
8ff
8ff
=22
[8ff
32ff]
32gg
32ff
32ee
8ff
8ff
8gg
8aa
=23
[8bb-
32bb-]
32ccc
32ddd
32bb-
8ff
8ff
8ee-
8dd
=24
[8cc
32cc]
32dd
32ee-
32cc
8gg
8ee-
8b-
8cc
=25
8.cc
16cc#
8dd
8ff
8ff
8ff
=26
[8ff
32ff]
32gg
32ff
32ee
8ff
8ff
8gg
8aa
=27
[8bb-
32bb-]
32ccc
32ddd
32bb-
8ff
8ff
8ee-
8dd
=28
32b
32cc
32dd
32cc
32ee-
32dd
32ff
32ee-
4gg
8ff
16.r
32a
=29
4b-
8r
8aa-
8gg
8aa
=30
8ccc
8bb-
8r
8a-
8g
8a
=31
4cc
8b-
8f
8g
8a-
=32
*>A
*M3/4
4b-
8a-
8g
8cc
8b-
=33
4b-
4a-
4g
=34
4e
8f
8cc
16b-
16a-
16g
16f
=35
4e-
16d
32r
32B-
32d
32c
32e-
32d
32f
32e-
32g
32f
32a-
32g
32b-
32a-
=36
16cc
8b-
32cc
32b-
16a-
16g
16f
16e-
16gg
16dd
16ee-
16cc
=37
4b-
8.a-
32g
32a-
16g
16ee-
16dd
16dd-
=38
16b
32dd
32cc
32b-
32a-
32g
32f
4.e-
16g
16f
=39
4e-
8r
8b-
8b-
8b-
=40
8ee-
4dd
16bb-
16aa-
16gg
16ff
16ee-
16dd
=41
16ff
8ee-
32dd
32cc
8b-
8b-
8b-
8b-
=42
8ee-
4dd
16bb-
16aa-
16gg
16ff
16ee-
16dd
=43
8ee-
32ee-
32ff
32gg
32ee-
8b-
8b-
8a-
8g
=44
8.b-
16g
4f
4r
=45
4.ff
32ee-
32dd
32cc
32b-
8a
8b-
=46
8cc
32ee-
32dd
32cc
32dd
8ee-
8f
8f
8f
=47
4.ee-
32ff
32ee-
32dd
32cc
8b-
8cc
=48
8dd
32ff
32ee-
32dd
32ee-
8ff
8r
4r
=49
4.aa-
32gg
32ff
32ee-
32dd
8ee-
8ff
=50
4.ff#
16aa-
16gg
16ff
16ee-
16dd
16cc
=51
24ff
24ee
24ff
24gg
24g
24ee-
4b-
16dd
16cc
16b-
16cc
=52
4b-
8r
8ff
8ff
8ff
=53
[8ff
32ff]
32gg
32ff
32ee
8ff
8ff
8gg
8aa
=54
[8bb-
32bb-]
32ccc
32ddd
32bb-
8ff
8ff
8ee-
8dd
=55
[8cc
32cc]
32dd
32ee-
32cc
8gg
8ee-
8b-
8cc
=56
8.cc
16cc#
8dd
8ff
8ff
8ff
=57
[8ff
32ff]
32gg
32ff
32ee
8ff
8ff
8gg
8aa
=58
[8bb-
32bb-]
32ccc
32ddd
32bb-
8ff
8ff
8ee-
8dd
=59
32b
32cc
32dd
32cc
32ee-
32dd
32ff
32ee-
4gg
8ff
16.r
32a
=60
4b-
8r
8aa-
8gg
8aa
=61
8ccc
8bb-
8r
8a-
8g
8a
=62
4cc
8b-
8f
8g
8a-
=63
*>B
4a
8b-
8dd-
8g
8cc
=64
4b-
8a-
8ff
8ff
8ff
=65
4ff#
8gg
4bb-
8ee
=66
4gg
8ff
8r
4r
=67
8r
8aa-
16gg
16ff
16ee-
16dd-
16cc
16dd-
16ff
16dd-
=68
4cc
2b
=69
8r
8cc
16b
16cc
16dd
16cc
16b
16cc
16ee-
16dd
=70
4b
2cc
=71
8r
8cc
8cc
8cc
8cc
8cc
=72
8dd-[
32dd-]
32cc
32b-
32a-
8g
8gg
8aa-
8cc[
=73
16cc]
16b-
16dd-
16ff
4.a-
16cc
16b-
=74
4a-
8r
8cc
8cc
8cc
=75
8ff
4ee
8cc
8cc
8cc
=76
8gg
4ff
8cc
8cc
8cc
=77
8aa-
4gg-
8cc
8cc
8cc
=78
8gg-
4ff-
8ff-
8ff-
8ee-
=79
8.ee-
32ff
32ee-
8dd
8a-
8a-
8a-
=80
4a-
8r
8aa-
8aa-
8aa-
=81
8.aa-
32bb-
32ccc
16bb-
16aa-
16gg
16ff
16ee-
16dd
16cc
16b-
=82
8.b-
32cc
32b-
8a-
8g
8cc
8b-
=83
8.b-
32cc
32b-
4a-
[4g
=84
16g]
16e
16f
16g
16a-
16a
16b-
16b
32dd
32cc
32b
32cc
32b-
32a-
32g
32f
=85
4e-
32d
32B-
32A
32B-
32B
32c
32d-
32d
32e-
32e
32f
32f#
32g
32a-
32a
32b-
=86
8.b-
32cc
32b-
32a-
32g
32cc
32b-
32ee-
32dd
32ff
32ee-
32aa-
32gg
32ff#
32gg
32ff
32ee-
32dd
32cc
=87
8b-
4a
8a-[
16a-]
16g
16ee-
16dd-
=88
16b
16cc
16dd
16ee-
8ee-
8b-[
16b-]
32cc
32b-
32b-
32a-
32g
32f
=89
4e-
8r
8b-
8b-
8b-
=90
8ee-
4dd
16bb-
16aa-
16gg
16ff
16ee-
16dd
=91
16ff
8ee-
32dd
32cc
8b-
8b-
8b-
8b-
=92
16ee-
16dd
4ccc
32bb-
32aa-
32ccc
32aa-
32gg
32ff
32aa-
32ff
32ee-
32dd
32ff
32dd
=93
32ee-
32ff
32ee-
32dd
48ee-
48ee
48ff
32ff#
32gg
8b-
8b-
8a-
8g
=94
16b-
16a
16b-
16g
4f
4r
=95
4.bb-
32aa-
32gg
32ff
32ee-
8dd
8ee-
=96
8ff
32aa-
32gg
32ff
32gg
8aa-
8b-
8b-
8b-
=97
4.aa-
32bb-
32aa-
32gg
32ff
8ee-
8ff
=98
8gg
32bb-
32aa-
32gg
32aa-
8bb-
8r
4r
=99
4.dd-
16ee-
16ff
16ee-
16dd-
16cc
16b
=100
[4b
16b]
16cc
16ee-
16dd
16ff
16ee-
16dd
16cc
=101
24b-
24b
24cc
24dd-
24dd
24ee-
4e-
16g
16f
16e-
16f
=102
4e-
2r
=103
[8b-
32b-]
32cc
32b-
32a
8b-
8b-
8cc
8dd
=104
[8ee-
32ee-]
32ff
32gg
32ee-
8b-
8b-
8a-
8g
=105
8f[
32f]
32g
32a-
32f
8cc
8a-
8e-
8f
=106
8.f
16f#
8g
8bb-
8bb-
8bb-
=107
[8bb-
32bb-]
32ccc
32bb-
32aa
8bb-
8bb-
8ccc
8ddd
=108
[8eee-
32eee-]
32ddd
32eee-
32bb-
8gg
8bb-
8aa-
8gg
=109
32ee
32ff
32gg
32ff
32aa-
32gg
32bb-
32aa-
4ccc
8bb-
16.r
32dd
=110
4ee-
8r
8ddd-
8ccc
8ddd
=111
8fff
8eee-
8r
8dd-
8cc
8dd
=112
*>B1
4ff
8ee-
8f
8g
8a-
=113
*>B
4a
8b-
8dd-
8g
8cc
=114
4b-
8a-
8ff
8ff
8ff
=115
4ff#
8gg
4bb-
8ee
=116
4gg
8ff
8r
4r
=117
8r
8aa-
16gg
16ff
16ee-
16dd-
16cc
16dd-
16ff
16dd-
=118
4cc
2b
=119
8r
8cc
16b
16cc
16dd
16cc
16b
16cc
16ee-
16dd
=120
4b
2cc
=121
8r
8cc
8cc
8cc
8cc
8cc
=122
8dd-[
32dd-]
32cc
32b-
32a-
8g
8gg
8aa-
8cc[
=123
16cc]
16b-
16dd-
16ff
4.a-
16cc
16b-
=124
4a-
8r
8cc
8cc
8cc
=125
8ff
4ee
8cc
8cc
8cc
=126
8gg
4ff
8cc
8cc
8cc
=127
8aa-
4gg-
8cc
8cc
8cc
=128
8gg-
4ff-
8ff-
8ff-
8ee-
=129
8.ee-
32ff
32ee-
8dd
8a-
8a-
8a-
=130
4a-
8r
8aa-
8aa-
8aa-
=131
8.aa-
32bb-
32ccc
16bb-
16aa-
16gg
16ff
16ee-
16dd
16cc
16b-
=132
8.b-
32cc
32b-
8a-
8g
8cc
8b-
=133
8.b-
32cc
32b-
4a-
[4g
=134
16g]
16e
16f
16g
16a-
16a
16b-
16b
32dd
32cc
32b
32cc
32b-
32a-
32g
32f
=135
4e-
32d
32B-
32A
32B-
32B
32c
32d-
32d
32e-
32e
32f
32f#
32g
32a-
32a
32b-
=136
8.b-
32cc
32b-
32a-
32g
32cc
32b-
32ee-
32dd
32ff
32ee-
32aa-
32gg
32ff#
32gg
32ff
32ee-
32dd
32cc
=137
8b-
4a
8a-[
16a-]
16g
16ee-
16dd-
=138
16b
16cc
16dd
16ee-
8ee-
8b-[
16b-]
32cc
32b-
32b-
32a-
32g
32f
=139
4e-
8r
8b-
8b-
8b-
=140
8ee-
4dd
16bb-
16aa-
16gg
16ff
16ee-
16dd
=141
16ff
8ee-
32dd
32cc
8b-
8b-
8b-
8b-
=142
16ee-
16dd
4ccc
32bb-
32aa-
32ccc
32aa-
32gg
32ff
32aa-
32ff
32ee-
32dd
32ff
32dd
=143
32ee-
32ff
32ee-
32dd
48ee-
48ee
48ff
32ff#
32gg
8b-
8b-
8a-
8g
=144
16b-
16a
16b-
16g
4f
4r
=145
4.bb-
32aa-
32gg
32ff
32ee-
8dd
8ee-
=146
8ff
32aa-
32gg
32ff
32gg
8aa-
8b-
8b-
8b-
=147
4.aa-
32bb-
32aa-
32gg
32ff
8ee-
8ff
=148
8gg
32bb-
32aa-
32gg
32aa-
8bb-
8r
4r
=149
4.dd-
16ee-
16ff
16ee-
16dd-
16cc
16b
=150
[4b
16b]
16cc
16ee-
16dd
16ff
16ee-
16dd
16cc
=151
24b-
24b
24cc
24dd-
24dd
24ee-
4e-
16g
16f
16e-
16f
=152
4e-
2r
=153
[8b-
32b-]
32cc
32b-
32a
8b-
8b-
8cc
8dd
=154
[8ee-
32ee-]
32ff
32gg
32ee-
8b-
8b-
8a-
8g
=155
8f[
32f]
32g
32a-
32f
8cc
8a-
8e-
8f
=156
8.f
16f#
8g
8bb-
8bb-
8bb-
=157
[8bb-
32bb-]
32ccc
32bb-
32aa
8bb-
8bb-
8ccc
8ddd
=158
[8eee-
32eee-]
32ddd
32eee-
32bb-
8gg
8bb-
8aa-
8gg
=159
32ee
32ff
32gg
32ff
32aa-
32gg
32bb-
32aa-
4ccc
8bb-
16.r
32dd
=160
4ee-
8r
8ddd-
8ccc
8ddd
=161
8fff
8eee-
8r
8dd-
8cc
8dd
=162
*>B2
4ff
8ee-
8f
8g
8a-
=163
2a-
8g
8r
==
*-
